icon-themes/sifr_svg/cmd/sc_animationmode.svg

<svg viewBox="0 0 16 16" xmlns="http://www.w3.org/2000/svg"><path d="m3.5 1-.5 2-2 .5 2 .5.5 2 .5-2 2-.5-2-.5zm4 0c-.2761424 0-.5.2238576-.5.5s.2238576.5.5.5.5-.2238576.5-.5-.2238576-.5-.5-.5zm4 1c-.276142 0-.5.2238576-.5.5s.223858.5.5.5.5-.2238576.5-.5-.223858-.5-.5-.5zm-3 2c-.2761424 0-.5.2238576-.5.5s.2238576.5.5.5.5-.2238576.5-.5-.2238576-.5-.5-.5zm-2.5 2c-.554 0-1 .446-1 1v3.603516c-.024243.01029-.0483316.0207-.0722656.03125-.1455793-.371738-.5031786-.634766-.9277344-.634766-.554 0-1 .446-1 1v2c0 1.656854 2.2385763 3 5 3 1.4200126-.0014 2.772076-.364949 3.71875-1h-.318359c-.964522 0-2.1145169-.335463-3.100391-1.279297l-.3-.294922v-2.425781h3v-1c0-.554-.446-1-1-1s-1 .446-1 1v-1c0-.554-.446-1-1-1s-1 .446-1 1v-2c0-.554-.446-1-1-1zm6 3v1c1.560655 1.623957-.566483 3.497742-2 2h-1v1c.8.77108 1.635355 1 2.400391 1h1.599609l2 2h1v-1l-2-2v-1.599609c0-.88237-.214695-1.600391-1-2.400391z" fill="#555753"/></svg>

<svg xmlns="http://www.w3.org/2000/svg" viewBox="0 0 16 16">
  <path
     style="fill:#555753"
     d="M 3.5 1 L 3 3 L 1 3.5 L 3 4 L 3.5 6 L 4 4 L 6 3.5 L 4 3 L 3.5 1 z M 7.5 1 C 7.2238576 1 7 1.2238576 7 1.5 C 7 1.7761424 7.2238576 2 7.5 2 C 7.7761424 2 8 1.7761424 8 1.5 C 8 1.2238576 7.7761424 1 7.5 1 z M 11.5 2 C 11.223858 2 11 2.2238576 11 2.5 C 11 2.7761424 11.223858 3 11.5 3 C 11.776142 3 12 2.7761424 12 2.5 C 12 2.2238576 11.776142 2 11.5 2 z M 8.5 4 C 8.2238576 4 8 4.2238576 8 4.5 C 8 4.7761424 8.2238576 5 8.5 5 C 8.7761424 5 9 4.7761424 9 4.5 C 9 4.2238576 8.7761424 4 8.5 4 z M 6 6 C 5.446 6 5 6.446 5 7 L 5 10.603516 C 4.975757 10.613806 4.9516684 10.624216 4.9277344 10.634766 C 4.7821551 10.263028 4.4245558 10 4 10 C 3.446 10 3 10.446 3 11 L 3 13 C 3 14.656854 5.2385763 16 8 16 C 9.4200126 15.9986 10.772076 15.635051 11.71875 15 L 11.400391 15 C 10.435869 15 9.2858741 14.664537 8.3 13.720703 L 8 13.425781 L 8 11 L 11 11 L 11 10 C 11 9.446 10.554 9 10 9 C 9.446 9 9 9.446 9 10 L 9 9 C 9 8.446 8.554 8 8 8 C 7.446 8 7 8.446 7 9 L 7 7 C 7 6.446 6.554 6 6 6 z M 12 9 L 12 10 C 13.560655 11.623957 11.433517 13.497742 10 12 L 9 12 L 9 13 C 9.8 13.77108 10.635355 14 11.400391 14 L 13 14 L 15 16 L 16 16 L 16 15 L 14 13 L 14 11.400391 C 14 10.518021 13.785305 9.8 13 9 L 12 9 z "
     />
</svg>
